app/assets/images/payment_icons/depay.svg

<svg xmlns="http://www.w3.org/2000/svg" viewBox="0 0 38 24" width="38" height="24" role="img" aria-labelledby="pi-depay"><title id="pi-depay">DePay</title><defs><linearGradient gradientTransform="matrix(1.31509 0 0 1.31509 6.93508 -3.7811)" gradientUnits="userSpaceOnUse" id="pi-depay-linear-gradient-1" x1="5.6" x2="4.24" y1="6.25" y2="11.1"><stop offset="0.09" stop-color="#6fa0d3"/><stop offset="0.45" stop-color="#447fc0"/><stop offset="0.66" stop-color="#3e75af"/><stop offset="1" stop-color="#275280"/></linearGradient><linearGradient gradientTransform="matrix(1.31509 0 0 1.31509 6.93508 -3.7811)" gradientUnits="userSpaceOnUse" id="pi-depay-linear-gradient-2" x1="14.82" x2="13.43" y1="10.99" y2="15.93"><stop offset="0.09" stop-color="#6fa0d3"/><stop offset="0.45" stop-color="#447fc0"/><stop offset="0.66" stop-color="#3e75af"/><stop offset="1" stop-color="#275280"/></linearGradient><linearGradient gradientTransform="matrix(1.31509 0 0 1.31509 6.93508 -3.7811)" gradientUnits="userSpaceOnUse" id="pi-depay-linear-gradient-3" x1="17.16" x2="1.44" y1="12.27" y2="13.47"><stop offset="0.09" stop-color="#fce876"/><stop offset="0.52" stop-color="#ffe63f"/><stop offset="0.7" stop-color="#e8cf3a"/><stop offset="1" stop-color="#b9a231"/></linearGradient><linearGradient gradientTransform="matrix(1.31509 0 0 1.31509 6.93508 -3.7811)" gradientUnits="userSpaceOnUse" id="pi-depay-linear-gradient-4" x1="16.99" x2="1.28" y1="10.12" y2="11.32"><stop offset="0" stop-color="#fce876"/><stop offset="0.16" stop-color="#ffe63f"/><stop offset="1" stop-color="#b9a231"/></linearGradient><linearGradient gradientTransform="matrix(1.31509 0 0 1.31509 6.93508 -3.7811)" gradientUnits="userSpaceOnUse" id="pi-depay-linear-gradient-5" x1="10.96" x2="7.54" y1="18.33" y2="5.37"><stop offset="0.09" stop-color="#cb296b"/><stop offset="0.55" stop-color="#ed3a85"/><stop offset="1" stop-color="#f185b5"/></linearGradient></defs><g fill-rule="evenodd"><path d="M3 0h32a3 3 0 0 1 3 3v18a3 3 0 0 1-3 3H3a3 3 0 0 1-3-3V3a3 3 0 0 1 3-3Z" fill-opacity=".07"/><path d="M3 1h32a2 2 0 0 1 2 2v18a2 2 0 0 1-2 2H3a2 2 0 0 1-2-2V3a2 2 0 0 1 2-2Z" fill="#fff"/><path d="M12.7609 11.6318C11.9982 10.606 11.7089 9.68544 12.0639 9.0805C12.419 8.47555 13.7341 8.21254 15.3517 8.58076C15.4856 7.81456 15.6881 7.06194 15.9566 6.33195C13.7604 5.91113 12.0113 6.2399 11.3275 7.37088C10.6436 8.50186 11.2091 10.1457 12.6426 11.829C12.6426 11.829 12.7609 11.6318 12.7609 11.6318Z" fill="url(#pi-depay-linear-gradient-1)" fill-rule="evenodd" opacity="1" stroke="none"/><path d="M12.7609 11.6318L12.6426 11.4608L12.4716 11.6844L12.59 11.829L12.7609 11.6318ZM15.3517 8.58076C15.4856 7.81456 15.6881 7.06194 15.9566 6.33195L15.1281 6.2136C14.8581 6.93619 14.647 7.67945 14.4969 8.4361C14.7862 8.46898 15.0702 8.51632 15.3517 8.58076Z" fill="#000000" fill-rule="evenodd" opacity="0.3" stroke="none"/><path d="M25.3464 11.829C24.8361 12.434 24.2733 12.9929 23.663 13.4992C24.7546 14.7354 25.2412 15.8927 24.8203 16.616C24.3995 17.3393 23.5973 17.3919 22.4269 17.2604C22.4269 17.3656 22.3611 17.4576 22.3348 17.5628C24.439 17.9311 26.1223 17.5628 26.7667 16.4845C27.4111 15.4061 26.8982 13.5781 25.3464 11.829Z" fill="url(#pi-depay-linear-gradient-2)" fill-rule="evenodd" opacity="1" stroke="none"/><path d="M25.3464 11.829C24.8361 12.434 24.2733 12.9929 23.663 13.4992L24.0444 13.9595C24.6428 13.44 25.1938 12.868 25.6883 12.2499C25.6225 12.1184 25.5173 12 25.3464 11.829ZM22.4795 17.2604C22.4795 17.3656 22.4137 17.4576 22.3874 17.5628L22.5058 17.2604C22.5058 17.2604 22.4795 17.2604 22.4795 17.2604Z" fill="#000000" fill-rule="evenodd" opacity="0.3" stroke="none"/><path d="M15.2859 15.1036C13.721 15.4324 12.5374 15.2746 12.1165 14.5776C11.4985 13.5124 12.8135 11.5397 15.1676 9.73804L15.1676 9.38297C11.9587 11.7633 10.236 14.6433 11.2223 16.3398C11.8798 17.4708 13.6289 17.7996 15.812 17.3919C15.5782 16.6437 15.4024 15.8787 15.2859 15.1036Z" fill="url(#pi-depay-linear-gradient-3)" fill-rule="evenodd" opacity="1" stroke="none"/><path d="M26.7798 7.23937C26.1223 6.12154 24.4127 5.79277 22.2822 6.17414L22.3743 6.41086C23.6894 6.2399 24.5705 6.41086 24.9255 7.05526C25.4121 7.88376 24.702 9.27776 23.2291 10.7244L23.2291 12.0395C23.2291 12.6852 23.1936 13.3309 23.1239 13.9726C26.1617 11.6055 27.7267 8.85693 26.7798 7.23937Z" fill="url(#pi-depay-linear-gradient-4)" fill-rule="evenodd" opacity="1" stroke="none"/><path d="M14.4574 15.2351C14.5994 16.0097 14.8072 16.7712 15.0755 17.5102L15.8646 17.3919C15.613 16.6452 15.4196 15.8801 15.2859 15.1036C14.9966 15.1562 14.7204 15.2088 14.4574 15.2351ZM15.1676 9.73804L15.1676 9.38297C14.8256 9.63284 14.4969 9.89585 14.1944 10.1589L14.1944 10.5271C14.51 10.2641 14.8256 10.0011 15.1676 9.73804ZM23.2291 10.6849L23.2291 12C23.2291 12.6457 23.1936 13.2914 23.1239 13.9332L23.2422 13.8411C23.3238 13.2309 23.3711 12.6155 23.3869 12L23.3869 10.6849C23.3869 10.6849 23.2291 10.6849 23.2291 10.6849ZM22.4795 6.39771L22.3874 6.14784L22.2822 6.14784L22.3743 6.38456C22.3743 6.38456 22.4795 6.39771 22.4795 6.39771Z" fill="#000000" fill-rule="evenodd" opacity="0.3" stroke="none"/><path d="M19.1523 3.00477C16.8772 3.00477 15.036 7.02895 15.036 12C15.036 16.971 16.8772 20.9952 19.1523 20.9952C21.4274 20.9952 23.2685 16.971 23.2685 12C23.2685 7.02895 21.4011 3.00477 19.1523 3.00477ZM20.2438 19.4829C18.7709 19.4829 17.4558 16.1557 17.4558 12.0658C17.4558 7.97582 18.7709 4.63549 20.2438 4.63549C21.7167 4.63549 23.0187 7.96267 23.0187 12.0658C23.0187 16.1688 21.7825 19.4829 20.2438 19.4829Z" fill="url(#pi-depay-linear-gradient-5)" fill-rule="evenodd" opacity="1" stroke="none"/></g></svg>

<svg xmlns="http://www.w3.org/2000/svg" width="38" height="24" aria-labelledby="pi-depay"><defs><linearGradient gradientTransform="translate(6.935 -3.781) scale(1.31509)" gradientUnits="userSpaceOnUse" id="a" x1="5.6" x2="4.24" y1="6.25" y2="11.1"><stop offset=".09" stop-color="#6fa0d3"/><stop offset=".45" stop-color="#447fc0"/><stop offset=".66" stop-color="#3e75af"/><stop offset="1" stop-color="#275280"/></linearGradient><linearGradient gradientTransform="translate(6.935 -3.781) scale(1.31509)" gradientUnits="userSpaceOnUse" id="b" x1="14.82" x2="13.43" y1="10.99" y2="15.93"><stop offset=".09" stop-color="#6fa0d3"/><stop offset=".45" stop-color="#447fc0"/><stop offset=".66" stop-color="#3e75af"/><stop offset="1" stop-color="#275280"/></linearGradient><linearGradient gradientTransform="translate(6.935 -3.781) scale(1.31509)" gradientUnits="userSpaceOnUse" id="c" x1="17.16" x2="1.44" y1="12.27" y2="13.47"><stop offset=".09" stop-color="#fce876"/><stop offset=".52" stop-color="#ffe63f"/><stop offset=".7" stop-color="#e8cf3a"/><stop offset="1" stop-color="#b9a231"/></linearGradient><linearGradient gradientTransform="translate(6.935 -3.781) scale(1.31509)" gradientUnits="userSpaceOnUse" id="d" x1="16.99" x2="1.28" y1="10.12" y2="11.32"><stop offset="0" stop-color="#fce876"/><stop offset=".16" stop-color="#ffe63f"/><stop offset="1" stop-color="#b9a231"/></linearGradient><linearGradient gradientTransform="translate(6.935 -3.781) scale(1.31509)" gradientUnits="userSpaceOnUse" id="e" x1="10.96" x2="7.54" y1="18.33" y2="5.37"><stop offset=".09" stop-color="#cb296b"/><stop offset=".55" stop-color="#ed3a85"/><stop offset="1" stop-color="#f185b5"/></linearGradient></defs><g fill-rule="evenodd"><path d="M3 0h32a3 3 0 0 1 3 3v18a3 3 0 0 1-3 3H3a3 3 0 0 1-3-3V3a3 3 0 0 1 3-3Z" fill-opacity=".07"/><path d="M3 1h32a2 2 0 0 1 2 2v18a2 2 0 0 1-2 2H3a2 2 0 0 1-2-2V3a2 2 0 0 1 2-2Z" fill="#fff"/><path d="M12.76 11.632c-.762-1.026-1.051-1.947-.696-2.551.355-.605 1.67-.868 3.288-.5.134-.766.336-1.52.605-2.249-2.197-.42-3.946-.092-4.63 1.039-.683 1.13-.118 2.775 1.316 4.458l.118-.197Z" fill="url(#a)"/><path d="m12.76 11.632-.117-.171-.171.223.118.145.17-.197Zm2.592-3.051c.134-.766.336-1.52.605-2.249l-.829-.118c-.27.722-.481 1.465-.631 2.222.29.033.573.08.855.145Z" opacity=".3"/><path d="M25.346 11.829a13.368 13.368 0 0 1-1.683 1.67c1.092 1.236 1.578 2.394 1.157 3.117-.42.723-1.223.776-2.393.644 0 .106-.066.198-.092.303 2.104.368 3.787 0 4.432-1.078.644-1.079.131-2.907-1.42-4.656Z" fill="url(#b)"/><path d="M25.346 11.829a13.368 13.368 0 0 1-1.683 1.67l.381.46c.599-.519 1.15-1.091 1.644-1.71-.066-.13-.17-.249-.342-.42ZM22.48 17.26c0 .106-.066.198-.093.303l.119-.303h-.026Z" opacity=".3"/><path d="M15.286 15.104c-1.565.328-2.749.17-3.17-.526-.617-1.066.697-3.038 3.052-4.84v-.355c-3.21 2.38-4.932 5.26-3.946 6.957.658 1.13 2.407 1.46 4.59 1.052a15.293 15.293 0 0 1-.526-2.288Z" fill="url(#c)"/><path d="M26.78 7.24c-.658-1.118-2.367-1.447-4.498-1.066l.092.237c1.315-.171 2.197 0 2.552.644.486.829-.224 2.223-1.697 3.67v1.315c0 .645-.035 1.29-.105 1.933 3.038-2.368 4.603-5.116 3.656-6.734Z" fill="url(#d)"/><path d="M14.457 15.235c.142.775.35 1.536.618 2.275l.79-.118a15.294 15.294 0 0 1-.58-2.288c-.288.052-.565.105-.828.131Zm.71-5.497v-.355c-.341.25-.67.513-.973.776v.368c.316-.263.632-.526.974-.789Zm8.062.947V12c0 .646-.035 1.291-.105 1.933l.118-.092c.082-.61.13-1.225.145-1.841v-1.315h-.158Zm-.75-4.287-.092-.25h-.105l.092.237.106.013Z" opacity=".3"/><path d="M19.152 3.005c-2.275 0-4.116 4.024-4.116 8.995 0 4.971 1.841 8.995 4.116 8.995 2.275 0 4.116-4.024 4.116-8.995 0-4.971-1.867-8.995-4.116-8.995Zm1.092 16.478c-1.473 0-2.788-3.327-2.788-7.417s1.315-7.43 2.788-7.43c1.473 0 2.775 3.327 2.775 7.43s-1.236 7.417-2.775 7.417Z" fill="url(#e)"/></g></svg>
